src/icons/photoshop.svg

<svg width="64" height="63" viewBox="0 0 64 63" fill="none" xmlns="http://www.w3.org/2000/svg">
<g clip-path="url(#clip0)">
<path d="M11.3333 0H52.6667C58.9333 0 64 5.06667 64 11.3333V51.0667C64 57.3333 58.9333 62.4 52.6667 62.4H11.3333C5.06667 62.4 0 57.3333 0 51.0667V11.3333C0 5.06667 5.06667 0 11.3333 0Z" fill="#001E36"/>
<path d="M14.4004 43.76V16.32C14.4004 16.1334 14.4804 16.0267 14.6671 16.0267C15.1204 16.0267 15.5471 16.0267 16.1604 16C16.8004 15.9734 17.4671 15.9734 18.1871 15.9467C18.9071 15.92 19.6804 15.92 20.5071 15.8934C21.3337 15.8667 22.1337 15.8667 22.9337 15.8667C25.1204 15.8667 26.9337 16.1334 28.4271 16.6934C29.7604 17.1467 30.9871 17.8934 32.0004 18.88C32.8537 19.7334 33.5204 20.7734 33.9471 21.92C34.3471 23.04 34.5604 24.1867 34.5604 25.3867C34.5604 27.68 34.0271 29.5734 32.9604 31.0667C31.8937 32.56 30.4004 33.68 28.6671 34.32C26.8537 34.9867 24.8537 35.2267 22.6671 35.2267C22.0271 35.2267 21.6004 35.2267 21.3337 35.2C21.0671 35.1734 20.6937 35.1734 20.1871 35.1734V43.7334C20.2137 43.92 20.0804 44.08 19.8937 44.1067C19.8671 44.1067 19.8404 44.1067 19.7871 44.1067H14.7204C14.5071 44.1067 14.4004 44 14.4004 43.76ZM20.2137 21.1734V30.1334C20.5871 30.16 20.9337 30.1867 21.2537 30.1867H22.6671C23.7071 30.1867 24.7471 30.0267 25.7337 29.7067C26.5871 29.4667 27.3337 28.96 27.9204 28.2934C28.4804 27.6267 28.7471 26.72 28.7471 25.5467C28.7737 24.72 28.5604 23.8934 28.1337 23.1734C27.6804 22.48 27.0404 21.9467 26.2671 21.6534C25.2804 21.2534 24.2137 21.0934 23.1204 21.12C22.4271 21.12 21.8137 21.12 21.3071 21.1467C20.7737 21.12 20.4004 21.1467 20.2137 21.1734Z" fill="#31A8FF"/>
<path d="M51.2002 28.5066C50.4002 28.08 49.5469 27.7866 48.6402 27.6C47.6536 27.3866 46.6669 27.2533 45.6536 27.2533C45.1202 27.2266 44.5602 27.3066 44.0536 27.44C43.7069 27.52 43.4136 27.7066 43.2269 27.9733C43.0936 28.1866 43.0136 28.4533 43.0136 28.6933C43.0136 28.9333 43.1202 29.1733 43.2802 29.3866C43.5202 29.68 43.8402 29.92 44.1869 30.1066C44.8002 30.4266 45.4402 30.72 46.0802 30.9866C47.5202 31.4666 48.9069 32.1333 50.1869 32.9333C51.0669 33.4933 51.7869 34.24 52.2936 35.1466C52.7202 36 52.9336 36.9333 52.9069 37.8933C52.9336 39.1466 52.5602 40.4 51.8669 41.44C51.1202 42.5066 50.0802 43.3333 48.8802 43.8133C47.5736 44.3733 45.9736 44.6666 44.0536 44.6666C42.8269 44.6666 41.6269 44.56 40.4269 44.32C39.4936 44.16 38.5602 43.8666 37.7069 43.4666C37.5202 43.36 37.3869 43.1733 37.4136 42.96V38.32C37.4136 38.24 37.4402 38.1333 37.5202 38.08C37.6002 38.0266 37.6802 38.0533 37.7602 38.1066C38.8002 38.72 39.8936 39.1466 41.0669 39.4133C42.0802 39.68 43.1469 39.8133 44.2136 39.8133C45.2269 39.8133 45.9469 39.68 46.4269 39.44C46.8536 39.2533 47.1469 38.8 47.1469 38.32C47.1469 37.9466 46.9336 37.6 46.5069 37.2533C46.0802 36.9066 45.2002 36.5066 43.8936 36C42.5336 35.52 41.2802 34.88 40.1069 34.08C39.2802 33.4933 38.5869 32.72 38.0802 31.8133C37.6536 30.96 37.4402 30.0266 37.4669 29.0933C37.4669 27.9466 37.7869 26.8533 38.3736 25.8666C39.0402 24.8 40.0269 23.9466 41.1736 23.4133C42.4269 22.7733 44.0002 22.48 45.8936 22.48C46.9869 22.48 48.1069 22.56 49.2002 22.72C50.0002 22.8266 50.7736 23.04 51.4936 23.3333C51.6002 23.36 51.7069 23.4666 51.7602 23.5733C51.7869 23.68 51.8136 23.7866 51.8136 23.8933V28.24C51.8136 28.3466 51.7602 28.4533 51.6802 28.5066C51.4402 28.56 51.3069 28.56 51.2002 28.5066Z" fill="#31A8FF"/>
</g>
<defs>
<clipPath id="clip0">
<rect width="64" height="62.4" fill="white"/>
</clipPath>
</defs>
</svg>

<svg xmlns="http://www.w3.org/2000/svg" fill="none" viewBox="0 0 64 63"><defs/><g clip-path="url(#clip0)"><path fill="#001E36" d="M11.33 0h41.34C58.93 0 64 5.07 64 11.33v39.74c0 6.26-5.07 11.33-11.33 11.33H11.33A11.32 11.32 0 010 51.07V11.33C0 5.07 5.07 0 11.33 0z"/><path fill="#31A8FF" d="M14.4 43.76V16.32c0-.19.08-.3.27-.3.45 0 .88 0 1.49-.02.64-.03 1.3-.03 2.03-.05.72-.03 1.49-.03 2.32-.06.82-.02 1.62-.02 2.42-.02 2.19 0 4 .26 5.5.82A9.52 9.52 0 0132 18.88a8.5 8.5 0 011.95 3.04c.4 1.12.61 2.27.61 3.47 0 2.29-.53 4.18-1.6 5.68a9.14 9.14 0 01-4.3 3.25c-1.8.67-3.8.9-6 .9-.63 0-1.06 0-1.33-.02-.26-.03-.64-.03-1.14-.03v8.56c.02.19-.11.35-.3.38h-5.17c-.21 0-.32-.11-.32-.35zm5.81-22.59v8.96c.38.03.72.06 1.04.06h1.42c1.04 0 2.08-.16 3.06-.48.86-.24 1.6-.75 2.19-1.42.56-.66.83-1.57.83-2.74a3.87 3.87 0 00-2.48-3.9 7.83 7.83 0 00-3.15-.53c-.7 0-1.3 0-1.81.03-.54-.03-.91 0-1.1.02zM51.2 28.5a9.44 9.44 0 00-2.56-.9c-.99-.21-1.97-.35-2.99-.35-.53-.02-1.09.06-1.6.19-.34.08-.64.27-.82.53-.14.22-.22.48-.22.72s.11.48.27.7a3 3 0 00.9.72c.62.32 1.26.61 1.9.88 1.44.48 2.83 1.14 4.1 1.94a6.2 6.2 0 012.11 2.22c.43.85.64 1.78.62 2.74a6.2 6.2 0 01-4.03 5.92c-1.3.56-2.9.86-4.83.86-1.22 0-2.42-.11-3.62-.35-.94-.16-1.87-.45-2.72-.85-.19-.11-.32-.3-.3-.51v-4.64c0-.08.03-.19.11-.24.08-.05.16-.03.24.03 1.04.61 2.13 1.04 3.3 1.3 1.02.27 2.09.4 3.15.4 1.02 0 1.74-.13 2.22-.37.42-.19.72-.64.72-1.12 0-.37-.22-.72-.64-1.07A11.3 11.3 0 0043.89 36a16.32 16.32 0 01-3.78-1.92 6.9 6.9 0 01-2.03-2.27 6.27 6.27 0 01.3-5.95 6.57 6.57 0 012.8-2.45c1.25-.64 2.82-.93 4.71-.93 1.1 0 2.22.08 3.31.24.8.1 1.57.32 2.3.61.1.03.2.14.26.24.03.11.05.22.05.32v4.35c0 .1-.05.21-.13.27-.24.05-.37.05-.48 0z"/></g><defs><clipPath id="clip0"><path fill="#fff" d="M0 0h64v62.4H0z"/></clipPath></defs></svg>
